X:1
T: Fair and Forty
C:
R:Reel
Q: 232
K:G
M:4/4
L:1/8
|:D2|((3GGG) BG d2 Bd|ef gf ed Bd|ce Ac Bd GB|AB cA GF ED|
((3GGG) BG d2 Bd|ef gf ed Bd|ce Ac Bd GB|cA FA G2:|
|:d2|gf ga bg dg|ed ef gd Bd|gf ga bg dg|ed cB A2 Bd|
gf ga bg dg|ed ef gd BG|DG Bd gd Bd|cA FA G2:|
